archdroid-icon-theme/Archdroid-BlueGrey/places/scalable/folder-collection-android.svg

<?xml version="1.0" encoding="UTF-8" standalone="no"?>
<svg
   xmlns:dc="http://purl.org/dc/elements/1.1/"
   xmlns:cc="http://creativecommons.org/ns#"
   xmlns:rdf="http://www.w3.org/1999/02/22-rdf-syntax-ns#"
   xmlns:svg="http://www.w3.org/2000/svg"
   xmlns="http://www.w3.org/2000/svg"
   xmlns:sodipodi="http://sodipodi.sourceforge.net/DTD/sodipodi-0.dtd"
   xmlns:inkscape="http://www.inkscape.org/namespaces/inkscape"
   fill="#607D8B"
   width="48"
   height="48"
   viewBox="0 0 48 48"
   id="svg2"
   version="1.1"
   inkscape:version="0.91 r13725"
   sodipodi:docname="folder-collection.svg">
  <metadata
     id="metadata10">
    <rdf:RDF>
      <cc:Work
         rdf:about="">
        <dc:format>image/svg+xml</dc:format>
        <dc:type
           rdf:resource="http://purl.org/dc/dcmitype/StillImage" />
        <dc:title />
      </cc:Work>
    </rdf:RDF>
  </metadata>
  <defs
     id="defs8" />
  <sodipodi:namedview
     pagecolor="#ffffff"
     bordercolor="#666666"
     borderopacity="1"
     objecttolerance="10"
     gridtolerance="10"
     guidetolerance="10"
     inkscape:pageopacity="0"
     inkscape:pageshadow="2"
     inkscape:window-width="1366"
     inkscape:window-height="713"
     id="namedview6"
     showgrid="false"
     inkscape:zoom="6.179518388275623"
     inkscape:cx="18.46499116598509"
     inkscape:cy="10.76417838998693"
     inkscape:window-x="0"
     inkscape:window-y="30"
     inkscape:window-maximized="1"
     inkscape:current-layer="svg2"
     inkscape:snap-bbox="true"
     inkscape:bbox-nodes="true" />
  <path
     d="m 8,12 -4,0 0,28 c 0,2.21 1.79,4 4,4 l 28,0 0,-4 -28,0 0,-28 z"
     id="path4146" />
  <path
     d="M 16 4 C 13.79 4 12 5.789999999999999 12 8 L 12 32 C 12 34.21 13.79 36 16 36 L 40 36 C 42.21 36 44 34.21 44 32 L 44 8 C 44 5.79 42.21 4 40 4 L 16 4 z M 24.580078125 10 C 24.68632259235 10 24.79375423085 10.03984798085 24.875 10.12109375 L 26.111328125 11.359375 C 26.78212652669999 11.026059024 27.5320729076 10.833984375 28.33203125 10.833984375 C 29.12782314269999 10.833984375 29.874383673 11.0263192237 30.541015625 11.35546875 L 31.7734375 10.126953125 C 31.9359290383 9.964461586700001 32.1988365867 9.964461586700001 32.361328125 10.126953125 C 32.5238196633 10.2894446633 32.5238196633 10.5503990867 32.361328125 10.712890625 L 31.2734375 11.80078125 C 32.51920596030001 12.70906728459999 33.33203125 14.1757373944 33.33203125 15.833984375 L 23.333984375 15.833984375 C 23.33398437499999 14.1799038441 24.1414706891 12.7132337343 25.37890625 11.80078125 L 24.287109375 10.708984375 C 24.12461783669999 10.5464928367 24.1246178367 10.2835852883 24.287109375 10.12109375 C 24.36835514415 10.03984798085 24.47383365765 10 24.580078125 10 z M 25.833984375 13.333984375 L 25.833984375 14.16796875 L 26.666015625 14.16796875 L 26.666015625 13.333984375 L 25.833984375 13.333984375 z M 30 13.333984375 L 30 14.16796875 L 30.83203125 14.16796875 L 30.83203125 13.333984375 L 30 13.333984375 z M 21.25 16.66796875 C 21.94163065020001 16.66796875 22.5 17.2263380998 22.5 17.91796875 L 22.5 23.75 C 22.5 24.44163065020001 21.9416306502 25 21.25 25 C 20.55836934979999 24.99999999999999 20 24.4416306502 20 23.75 L 20 17.91796875 C 20 17.22633809979999 20.5583693498 16.66796875 21.25 16.66796875 z M 23.333984375 16.66796875 L 33.33203125 16.66796875 L 33.33203125 25 C 33.33203124999999 25.458309467 32.95830946699999 25.833984375 32.5 25.833984375 L 31.666015625 25.833984375 L 31.666015625 28.75 C 31.66601562500001 29.44163065019999 31.1076462752 30 30.416015625 30 C 29.72438497479999 30.00000000000001 29.166015625 29.4416306502 29.166015625 28.75 L 29.166015625 25.833984375 L 27.5 25.833984375 L 27.5 28.75 C 27.49999999999999 29.44163065019999 26.9416306502 30 26.25 30 C 25.5583693498 30.00000000000001 25 29.4416306502 25 28.75 L 25 25.833984375 L 24.166015625 25.833984375 C 23.707706158 25.833984375 23.333984375 25.458309467 23.333984375 25 L 23.333984375 16.66796875 z M 35.416015625 16.66796875 C 36.1076462752 16.66796875 36.666015625 17.2263380998 36.666015625 17.91796875 L 36.666015625 23.75 C 36.666015625 24.44163065020001 36.1076462752 25 35.416015625 25 C 34.7243849748 24.99999999999999 34.166015625 24.4416306502 34.166015625 23.75 L 34.166015625 17.91796875 C 34.166015625 17.22633809979999 34.7243849748 16.66796875 35.416015625 16.66796875 z "
     id="path4195" />
</svg>

<svg xmlns="http://www.w3.org/2000/svg" fill="#607D8B" viewBox="0 0 48 48"><path d="m8 12h-4v28c0 2.21 1.79 4 4 4h28v-4h-28v-28"/><path d="m16 4c-2.21 0-4 1.79-4 4v24c0 2.21 1.79 4 4 4h24c2.21 0 4-1.79 4-4v-24c0-2.21-1.79-4-4-4h-24m8.58 6c.106 0 .214.04.295.121l1.236 1.238c.671-.333 1.421-.525 2.221-.525.796 0 1.542.192 2.209.521l1.232-1.229c.162-.162.425-.162.588 0 .162.162.162.423 0 .586l-1.088 1.088c1.246.908 2.059 2.375 2.059 4.03h-9.998c0-1.654.807-3.121 2.045-4.03l-1.092-1.092c-.162-.162-.162-.425 0-.588.081-.081.187-.121.293-.121m1.254 3.334v.834h.832v-.834h-.832m4.166 0v.834h.832v-.834h-.832m-8.75 3.334c.692 0 1.25.558 1.25 1.25v5.832c0 .692-.558 1.25-1.25 1.25-.692 0-1.25-.558-1.25-1.25v-5.832c0-.692.558-1.25 1.25-1.25m2.084 0h9.998v8.332c0 .458-.374.834-.832.834h-.834v2.916c0 .692-.558 1.25-1.25 1.25-.692 0-1.25-.558-1.25-1.25v-2.916h-1.666v2.916c0 .692-.558 1.25-1.25 1.25-.692 0-1.25-.558-1.25-1.25v-2.916h-.834c-.458 0-.832-.376-.832-.834v-8.332m12.08 0c.692 0 1.25.558 1.25 1.25v5.832c0 .692-.558 1.25-1.25 1.25-.692 0-1.25-.558-1.25-1.25v-5.832c0-.692.558-1.25 1.25-1.25"/></svg>
